X: 510
P: Longways for as many as will
M: C|
L: 1/8
K: G
V: 1
g |\
e/e/e Td>B dGGB | A/A/A B>G AEEA |\
g |\
e/e/e gd eBgB | A/A/A B>G AEEA |\
V: 2 clef=bass middle=d
z |\
g2c'2 b2a2 | g2c2 d2c2 | B2c2 Gg/a/ bg | c'2b>a gGG :|\
z | c'2b2 bb/a/ bg | fdgG d2c2 |
g |\
c'2b2 c'2ze | fd gG d2c2 |\

